static/assets/images/icons/cookie.svg

<svg width="256" height="256" viewBox="0 0 256 256" fill="none" xmlns="http://www.w3.org/2000/svg">
<path d="M128 228C114.166 228 101.166 225.377 88.9998 220.13C76.8332 214.883 66.2499 207.769 57.2499 198.787C48.2499 189.804 41.1266 179.234 35.88 167.076C30.6333 154.918 28.0067 141.934 28 128.125C28 115.64 30.4167 103.406 35.25 91.4207C40.0833 79.4357 46.8333 68.7391 55.4999 59.3308C64.1665 49.9226 74.5832 42.3487 86.7498 36.6092C98.9164 30.8697 112.25 28 126.75 28C130.25 28 133.833 28.1665 137.5 28.4994C141.166 28.8323 144.916 29.4149 148.75 30.2472C147.25 37.7378 147.75 44.8123 150.25 51.4707C152.75 58.129 156.5 63.6621 161.5 68.0699C166.5 72.4777 172.459 75.5173 179.379 77.1885C186.299 78.8598 193.423 78.4436 200.749 75.9401C196.416 85.7611 197.043 95.166 202.629 104.155C208.216 113.144 216.506 117.804 227.499 118.137C227.666 119.968 227.793 121.673 227.879 123.251C227.966 124.829 228.006 126.537 227.999 128.375C227.999 142.024 225.373 154.881 220.119 166.946C214.866 179.011 207.743 189.581 198.749 198.657C189.756 207.732 179.173 214.89 166.999 220.13C154.826 225.37 141.826 227.993 128 228ZM113 108.15C117.166 108.15 120.71 106.695 123.63 103.785C126.55 100.876 128.006 97.3367 128 93.1685C127.993 89.0004 126.536 85.4648 123.63 82.5618C120.723 79.6588 117.18 78.2006 113 78.1873C108.82 78.1739 105.28 79.6321 102.38 82.5618C99.4797 85.4915 98.0198 89.027 97.9998 93.1685C97.9798 97.31 99.4397 100.849 102.38 103.785C105.32 106.722 108.86 108.176 113 108.15ZM92.9998 158.087C97.1664 158.087 100.71 156.633 103.63 153.723C106.55 150.813 108.006 147.274 108 143.106C107.993 138.938 106.536 135.402 103.63 132.499C100.723 129.596 97.1798 128.138 92.9998 128.125C88.8198 128.112 85.2798 129.57 82.3798 132.499C79.4798 135.429 78.0198 138.965 77.9998 143.106C77.9798 147.248 79.4398 150.787 82.3798 153.723C85.3198 156.659 88.8598 158.114 92.9998 158.087ZM158 168.075C160.833 168.075 163.21 167.116 165.13 165.198C167.05 163.281 168.006 160.911 168 158.087C167.993 155.264 167.033 152.894 165.12 150.976C163.206 149.059 160.833 148.1 158 148.1C155.166 148.1 152.793 149.059 150.88 150.976C148.966 152.894 148.006 155.264 148 158.087C147.993 160.911 148.953 163.284 150.88 165.208C152.806 167.133 155.18 168.088 158 168.075Z" fill="black"/>
</svg>

<svg xmlns="http://www.w3.org/2000/svg" fill="none" viewBox="0 0 256 256"><path fill="#000" d="M128 228q-20.751 0-39-7.87-18.25-7.87-31.75-21.343-13.5-13.474-21.37-31.711T28 128.125q0-18.727 7.25-36.704Q42.5 73.443 55.5 59.33t31.25-22.722 40-8.609q5.25 0 10.75.5 5.499.498 11.25 1.747-2.25 11.235 1.5 21.224 3.75 9.988 11.25 16.6t17.879 9.119q10.38 2.506 21.37-1.249-6.5 14.731 1.88 28.215t24.87 13.982q.25 2.747.38 5.114t.12 5.124q0 20.474-7.88 38.571t-21.37 31.711-31.75 21.473T128 228m-15-119.85q6.25 0 10.63-4.365 4.38-4.364 4.37-10.617-.01-6.252-4.37-10.606T113 78.187t-10.62 4.375T98 93.168t4.38 10.617T113 108.15m-20 49.937q6.25 0 10.63-4.364 4.38-4.365 4.37-10.617t-4.37-10.607T93 128.125q-6.27-.02-10.62 4.374-4.35 4.395-4.38 10.607-.03 6.213 4.38 10.617T93 158.087m65 9.988q4.25 0 7.13-2.877 2.88-2.875 2.87-7.111-.01-4.234-2.88-7.111T158 148.1t-7.12 2.876q-2.871 2.877-2.88 7.111-.01 4.236 2.88 7.121 2.89 2.887 7.12 2.867"/></svg>
